public/img/logo.svg

<svg fill="none" height="41" viewBox="0 0 57 41" width="57" xmlns="http://www.w3.org/2000/svg"><path d="m41.028.870972-2.1445.022994.05 4.644104c-5.4534 1.58278-12.9307 2.35159-19.8338 2.8085 4.1815 11.47133 11.8375 20.70303 18.8058 30.63463 2.4683-2.3417 6.0892-3.8105 9.9434-4.2903-2.4781-2.1575-4.3645-3.3318-7.0094-8.392 3.7256 4.4183 6.2643 5.7744 9.2481 7.3874.3888-1.56 1.0649-2.9353 2.2304-3.8927 1.0326-.8483 2.3859-1.2694 3.9948-1.2324-5.5846-7.1202-12.113-13.9459-15.2297-22.56945zm-23.5785 1.390968-2.1443.02907s.0298 2.18504.0667 4.40463c.0186 1.10991.0387 2.22828.0583 3.0892.0071.31406.0139.54566.0207.77946-4.0958 9.976-8.23903 19.1808-14.763888 27.8124 4.007298-.1653 7.902118-.1433 11.741588-.0049 2.6524-7.4602 2.7814-16.0667 4.2446-24.0671 1.3602 8.1685 1.2588 16.6135 3.9892 24.5227 5.1185.3672 10.2091.8576 15.4108 1.3017-6.6326-9.4301-14.084-18.4712-18.4808-29.7095-.006-.2123-.012-.4046-.0182-.68349-.0193-.85257-.0396-1.96856-.0581-3.07621-.0369-2.21531-.0666-4.39796-.0666-4.39796z" fill="#fff"/></svg>

<svg width="57" height="41" viewBox="0 0 57 41" fill="none" xmlns="http://www.w3.org/2000/svg">
<path d="M41.028 0.870972L38.8835 0.893966L38.9335 5.53807C33.4801 7.12085 26.0028 7.88966 19.0997 8.34657C23.2812 19.8179 30.9372 29.0496 37.9055 38.9812C40.3738 36.6395 43.9947 35.1707 47.8489 34.6909C45.3708 32.5334 43.4844 31.3591 40.8395 26.2989C44.5651 30.7172 47.1038 32.0733 50.0876 33.6863C50.4764 32.1263 51.1525 30.751 52.318 29.7936C53.3506 28.9453 54.7039 28.5242 56.3128 28.5612C50.7282 21.441 44.1998 14.6153 41.0831 5.99175L41.028 0.870972ZM17.4495 2.26194L15.3052 2.29101C15.3052 2.29101 15.335 4.47605 15.3719 6.69564C15.3905 7.80555 15.4106 8.92392 15.4302 9.78484C15.4373 10.0989 15.4441 10.3305 15.4509 10.5643C11.3551 20.5403 7.21187 29.7451 0.687012 38.3767C4.69431 38.2114 8.58913 38.2334 12.4286 38.3718C15.081 30.9116 15.21 22.3051 16.6732 14.3047C18.0334 22.4732 17.932 30.9182 20.6624 38.8274C25.7809 39.1946 30.8715 39.685 36.0732 40.1291C29.4406 30.699 21.9892 21.6579 17.5924 10.4196C17.5864 10.2073 17.5804 10.015 17.5742 9.73611C17.5549 8.88354 17.5346 7.76755 17.5161 6.6599C17.4792 4.44459 17.4495 2.26194 17.4495 2.26194Z" fill="white"/>
</svg>
